X:2
T:Andy Irvings Polka
R:polka
M:4/4
L:1/8
Q:1/4=3D200
K:G=A0 %1sharp
z7E=A0 |
|: "G" D>EDB, DEG>A=A0=A0 |=A0 Bd AB/A/ "C" GEcE=A0 |=A0 "G" D>EDB, DEG>A=
=A0=A0 |1 =A0
"D" Bd AB/A/ "G" G2 GE=A0 :|2=A0 "D" Bd AB/A/ "G" G2 GA=A0 |=20
|: "G" Bdd>B=A0 "C" cee>c=A0 |=A0 "G"=A0 Bd AB/A/ "C" GEcE=A0 | "G" Bdd>B=
=A0 "C"=20
cee>f=A0 |1=A0=A0 "Em" ge"D"fd "C" e2 eA :|2=A0=A0 "Em" ge"D"fd "C" e2 ef=
=A0 |
|:"Em"=A0 ge"D"fd "C" ed"G"B>A=A0 |=A0 "G"=A0 Bd AB/A/ "C" GEcE=A0 |=A0 "G"=
 D>EDB,=20
DEG>A=A0=A0 |1=A0 "D" Bd AB/A/ "G" G2 Gf=A0 :|2=A0 "D" Bd AB/A/ "G" G2 GE |
|: "G" D>EDB, DEG>A=A0=A0 |=A0 Bd AB/A/ "C" GEcE=A0 |=A0 "G" D>EDB, DEG>A=
=A0=A0 |1 =A0
"D" Bd AB/A/ "G" G2 GE=A0 :|2=A0 "D" Bd AB/A/ "G" G2 GA=A0 |=20
|: "G" Bdd>B=A0 "C" cee>c=A0 |=A0 "G"=A0 Bd AB/A/ "C" GEcE=A0 | "G" Bdd>B=
=A0 "C"=20
cee>f=A0 |1=A0=A0 "Em" ge"D"fd "C" e2 eA :|2=A0=A0 "Em" ge"D"fd "C" e2 ef=
=A0 |
|:"Em"=A0 ge"D"fd "C" ed"G"B>A=A0 |=A0 "G"=A0 Bd AB/A/ "C" GEcE=A0 |=A0 "G"=
 D>EDB,=20
DEG>A=A0=A0 |1=A0 "D" Bd AB/A/ "G" G2 Gf=A0 :|2=A0 "D" Bd AB/A/ "G" G2=20
G=A0 z=A0 |
